dist/assets/images/favicons/favicon.svg

<svg width="84" height="59" viewBox="0 0 84 59" fill="none" xmlns="http://www.w3.org/2000/svg">
<path fill-rule="evenodd" clip-rule="evenodd" d="M7.46912 0H11.9212H52.8725C68.8042 0 82.0131 12.1032 84 27.6592H67.1485C65.456 21.9046 60.1209 17.6722 53.866 17.6722H7.94744H3.75296L0 0H7.46912Z" fill="#0000BD"/>
<path d="M51.4008 30.1458H55.5585L53.5717 26.2475H53.4613L51.4008 30.1458ZM49.0461 34.7866H46.1393L51.6584 24.2798H55.3378L60.82 34.7866H57.9133L56.5888 32.1506H50.4442L49.0461 34.7866ZM35.3588 24.2798H44.2629V26.3589H37.824V34.7866H35.322V24.2798H35.3588ZM23.2905 26.3589V29.5889H27.4481C28.0736 29.5889 28.4784 29.4775 28.6991 29.2176C28.9199 28.9577 29.0671 28.5493 29.0671 27.9553C29.0671 27.3984 28.9567 26.99 28.7359 26.7673C28.4784 26.5074 28.0736 26.3589 27.4481 26.3589H23.2905ZM23.2905 31.668V34.7495H20.7885V24.2798H27.8897C29.2142 24.2798 30.1341 24.5768 30.7228 25.1337C31.2747 25.6906 31.569 26.6559 31.569 27.9553C31.569 29.2919 31.2747 30.2572 30.7228 30.8141C30.1709 31.4081 29.251 31.668 27.9265 31.668H23.2905ZM8.09466 28.5493H14.276V28.1038C14.276 27.287 14.1656 26.8044 13.9081 26.5816C13.6505 26.3589 13.0986 26.2846 12.2524 26.2846H9.0513C8.31543 26.2846 7.83711 26.396 7.50597 26.6188C7.21162 26.8415 7.06444 27.2499 7.06444 27.7697H4.56247C4.56247 26.396 4.93041 25.4307 5.66628 24.8738C6.29177 24.4283 7.2852 24.1684 8.60978 24.1684H12.7307C14.276 24.1684 15.3062 24.4283 15.8949 24.9481C16.4468 25.4679 16.7412 26.4703 16.7412 27.9924V31.0739C16.7412 32.4848 16.4836 33.45 15.9317 34.0069C15.3798 34.5267 14.3864 34.8237 12.9514 34.8237H8.35222C6.84368 34.8237 5.85025 34.5638 5.33514 34.0812C4.82003 33.5614 4.59926 32.5961 4.59926 31.1853H7.10123C7.10123 31.8165 7.24841 32.2249 7.54276 32.4476C7.83711 32.6704 8.35222 32.7446 9.12489 32.7446H12.3259C13.0618 32.7446 13.5769 32.6333 13.8713 32.4105C14.2024 32.1506 14.3496 31.6308 14.3496 30.8512V30.3685H8.09466V28.5493Z" fill="#2B2A29"/>
<path fill-rule="evenodd" clip-rule="evenodd" d="M7.46912 58.9564H11.9212H52.8725C68.8042 58.9564 82.0131 46.8161 84 31.2972H67.1485C65.456 37.0518 60.1209 41.2842 53.866 41.2842H7.94744H3.75296L0 58.9564H7.46912Z" fill="#E31E24"/>
</svg>

<svg width="84" height="59" fill="none" xmlns="http://www.w3.org/2000/svg"><path fill-rule="evenodd" clip-rule="evenodd" d="M7.47 0h45.403C68.803 0 82.013 12.103 84 27.66H67.148c-1.692-5.755-7.027-9.988-13.282-9.988H3.753L0 0h7.47z" fill="#0000BD"/><path d="M51.4 30.146h4.159l-1.987-3.899h-.11L51.4 30.146zm-2.354 4.64H46.14l5.52-10.506h3.679l5.482 10.507h-2.907L56.59 32.15h-6.145l-1.398 2.636zM35.36 24.28h8.904v2.079h-6.439v8.428h-2.502V24.28h.037zm-12.07 2.079v3.23h4.158c.626 0 1.03-.111 1.251-.371.22-.26.368-.669.368-1.263 0-.557-.11-.965-.331-1.188-.258-.26-.662-.408-1.288-.408h-4.157zm0 5.309v3.081h-2.502V24.28h7.102c1.324 0 2.244.298 2.833.855.552.557.846 1.522.846 2.821 0 1.337-.294 2.302-.846 2.86-.552.593-1.472.853-2.796.853H23.29zM8.096 28.549h6.181v-.445c0-.817-.11-1.3-.368-1.522-.258-.223-.81-.297-1.656-.297h-3.2c-.737 0-1.215.111-1.546.334-.294.223-.442.63-.442 1.15H4.562c0-1.373.368-2.338 1.104-2.895.626-.446 1.62-.706 2.944-.706h4.12c1.546 0 2.576.26 3.165.78.552.52.846 1.522.846 3.044v3.082c0 1.41-.257 2.376-.81 2.933-.551.52-1.545.817-2.98.817H8.352c-1.508 0-2.502-.26-3.017-.743-.515-.52-.736-1.485-.736-2.896h2.502c0 .632.147 1.04.442 1.263.294.222.81.297 1.582.297h3.2c.737 0 1.252-.112 1.546-.334.331-.26.479-.78.479-1.56v-.482H8.095v-1.82z" fill="#2B2A29"/><path fill-rule="evenodd" clip-rule="evenodd" d="M7.47 58.956h45.403c15.931 0 29.14-12.14 31.127-27.659H67.148c-1.692 5.755-7.027 9.987-13.282 9.987H3.753L0 58.956h7.47z" fill="#E31E24"/></svg>
